public/discord.svg

<svg width="32" height="26" viewBox="0 0 32 26" fill="none" xmlns="http://www.w3.org/2000/svg">
<path d="M27.107 2.90468C25.0046 1.94213 22.7851 1.25927 20.5052 0.873535C20.1932 1.43125 19.9109 2.00507 19.6595 2.59258C17.231 2.22663 14.7613 2.22663 12.3328 2.59258C12.0813 2.00513 11.799 1.43132 11.4871 0.873535C9.20578 1.26253 6.9848 1.94701 4.88026 2.90971C0.702192 9.09123 -0.430415 15.1192 0.135889 21.0616C2.58267 22.8694 5.32131 24.2443 8.23277 25.1264C8.88835 24.2447 9.46845 23.3093 9.96692 22.3302C9.02015 21.9765 8.10634 21.5403 7.23608 21.0264C7.46512 20.8603 7.68912 20.6891 7.90558 20.523C10.4378 21.7139 13.2017 22.3313 15.9999 22.3313C18.7982 22.3313 21.5621 21.7139 24.0943 20.523C24.3133 20.7017 24.5373 20.8729 24.7638 21.0264C23.8919 21.5411 22.9764 21.9782 22.0279 22.3327C22.5258 23.3114 23.1059 24.246 23.7621 25.1264C26.676 24.2478 29.4168 22.8736 31.864 21.0641C32.5285 14.1729 30.7289 8.20025 27.107 2.90468ZM10.6842 17.4071C9.10614 17.4071 7.80238 15.975 7.80238 14.2131C7.80238 12.4513 9.06084 11.0066 10.6792 11.0066C12.2976 11.0066 13.5913 12.4513 13.5636 14.2131C13.5359 15.975 12.2925 17.4071 10.6842 17.4071ZM21.3156 17.4071C19.735 17.4071 18.4363 15.975 18.4363 14.2131C18.4363 12.4513 19.6948 11.0066 21.3156 11.0066C22.9365 11.0066 24.2202 12.4513 24.1925 14.2131C24.1648 15.975 22.924 17.4071 21.3156 17.4071Z" fill="white"/>
</svg>

<svg xmlns="http://www.w3.org/2000/svg" width="32" height="26" fill="none" xmlns:v="https://vecta.io/nano"><path d="M27.107 2.905c-2.102-.963-4.322-1.645-6.602-2.031a18.13 18.13 0 0 0-.846 1.719c-2.428-.366-4.898-.366-7.327 0-.252-.587-.534-1.161-.846-1.719A26.65 26.65 0 0 0 4.88 2.91C.702 9.091-.43 15.119.136 21.062a26.61 26.61 0 0 0 8.097 4.065c.656-.882 1.236-1.817 1.734-2.796-.947-.354-1.861-.79-2.731-1.304.229-.166.453-.337.669-.503a19.02 19.02 0 0 0 16.189 0c.219.179.443.35.669.503a17.29 17.29 0 0 1-2.736 1.306c.498.979 1.078 1.913 1.734 2.794a26.49 26.49 0 0 0 8.102-4.062c.665-6.891-1.135-12.864-4.757-18.159zM10.684 17.407c-1.578 0-2.882-1.432-2.882-3.194s1.258-3.206 2.877-3.206 2.912 1.445 2.884 3.207-1.271 3.194-2.879 3.194zm10.631 0c-1.581 0-2.879-1.432-2.879-3.194s1.259-3.206 2.879-3.206 2.905 1.445 2.877 3.207-1.268 3.194-2.877 3.194z" fill="#fff"/></svg>
